X:472
T:Liberton Pipe Band 
C:Joe Buchanan's Scottish Tome - Page 104.1
I:104 1
R:Polka
Z:Carl Allison
L:1/16
M:2/4
K:D
W:1st Fiddle
%%vskip 0
f2 | !segno!"D"(A2B>A) F2A2 | d2A2 f4 | "A7"(f2e>f) g2e2 | "D"d>cd<e f2d2 |
"D"(A2B>A) F2A2 | d2A2 f4 | "A7"(f2e>f) g2c2 | e2d2 {c}!fine!d4 :|
"A"e2f>e c2e2 | "A"a2c2 e4 | "A7"(e2f>e) "E7"d2B2 | "D"f2e2 "A"c4 |
"A"e2f>e c2e2 | a2c2 e4 | "A"(e2f>e) "E7"d2B2 | "E7"B2A2 {B}A4 :|
"A"A2c2 c2e2 | "A"(e2f>e) "E(a)"c4 | "E"(e2f>e) "B"d2B2 | "B"f2e2 "A"c4 |
"A"A2c2 c2e2 | "A"(e2f>e) "E(f7)"c4 | "E"(e2f>e) "B"d2B2 | "B"B2A2 "A"{B}A4 :|
"D"a2f2 "A(0)"f2a2 | "A"(e2f>e) c4 | "A"(e2f>e) "E7"d2B2 | "D"f2e2 "A7"c4 |
"D"a2f2 "A(0)"f2a2 | "A"(e2f>e) c4 | "A"(e2f>e) "E7"d2B2 | "A"B2A2 "E7"{B}A4 !segno! :|

